Static/spring-roll.svg

<svg width="124" height="118" viewBox="0 0 124 118" fill="none" xmlns="http://www.w3.org/2000/svg">
<path d="M100.284 114.16C99.6079 110.077 98.7219 106.114 97.6708 102.107C96.8614 98.5195 96.2293 94.2701 94.4608 90.9579C93.5383 89.1142 90.3307 89.8513 90.4593 92.0145C90.4593 92.0145 90.415 92.18 90.5802 92.2242C90.1167 92.6322 89.6975 92.875 89.0689 93.2385C88.9037 93.1942 88.5291 93.2709 88.3638 93.2266C87.9891 93.3036 87.57 93.5461 87.1508 93.7889C79.5158 86.5986 71.7921 79.7394 65.0397 71.8987C63.0051 69.5796 61.1801 67.139 59.6089 64.4122C69.4535 61.3734 81.5069 55.3783 82.4836 44.4641C83.6864 30.0627 66.9877 33.5711 60.1243 39.36C51.7499 46.1632 50.1289 53.5342 53.9598 62.366C47.4558 64.1712 40.5573 64.8065 34.5332 62.8373C19.963 58.401 21.033 44.4962 27.8041 34.4251C31.656 37.2311 36.4788 39.0556 41.0406 39.2135C49.2487 39.639 59.3804 29.5814 55.7913 21.1691C52.1578 12.9223 34.8657 21.9483 30.9482 25.3335C29.8117 26.2707 28.6312 27.3735 27.6156 28.5205C27.4947 28.3108 27.3292 28.2664 27.2086 28.0567C17.3539 17.256 28.3805 7.0867 38.0477 4.70999C39.5468 4.40208 38.5306 3.40916 37.0759 3.55156C27.2999 5.01218 17.2418 11.7268 20.3953 23.7476C21.2169 26.6286 22.788 29.3557 25.0322 31.5536C18.9585 39.6829 16.1201 50.2758 22.6065 59.1094C30.3901 69.7099 44.6066 68.1976 55.6076 65.4687C55.7286 65.6783 55.7286 65.6783 55.8494 65.8883C62.4078 77.7571 73.7417 87.0028 83.7095 96.0599C82.573 96.9971 81.3921 98.1001 80.2557 99.0371C79.5383 99.7322 79.3931 100.935 79.8766 101.774C84.2075 108.079 90.0052 113.535 97.129 116.685C98.813 117.669 100.622 116.203 100.284 114.16ZM55.9757 56.1655C54.0264 48.9022 60.1722 43.8079 65.7093 40.3246C72.9672 35.7057 81.61 39.7955 77.2646 48.7426C74.9873 53.2769 69.6719 55.9327 65.36 58.1478C63.0992 59.316 60.5082 60.396 57.7962 61.2658C56.9943 59.6318 56.4023 57.8763 55.9757 56.1655ZM30.4318 31.2268C33.9418 27.3776 38.1331 24.9528 42.9726 23.4112C45.1003 22.7396 47.3489 22.2777 49.6296 22.3567C55.6901 22.2066 50.4867 30.3917 48.7094 32.399C43.5548 37.7588 35.758 35.1375 30.4318 31.2268ZM84.7038 100.939C84.7482 100.773 84.9134 100.817 84.9577 100.652C85.4534 100.785 86.0378 100.586 86.5455 100.013C87.3515 98.9871 88.3228 98.0056 89.2941 97.0238C89.7576 96.6158 91.0149 95.8883 90.6845 95.7998C90.8497 95.8441 91.0593 95.7228 91.1036 95.5573C91.6071 97.6433 92.4408 99.8183 92.9443 101.904C93.6451 104.576 94.3015 107.412 94.9578 110.249C91.138 107.985 87.5844 104.726 84.7038 100.939Z" fill="#B9D0DF"/>
</svg>

<svg xmlns="http://www.w3.org/2000/svg" width="124" height="118" fill="none"><path fill="#B9D0DF" d="M100.284 114.16c-.676-4.083-1.562-8.046-2.613-12.053-.81-3.588-1.442-7.837-3.21-11.15-.923-1.843-4.13-1.106-4.002 1.058 0 0-.044.165.121.21-.463.407-.882.65-1.511 1.014-.165-.045-.54.032-.705-.012-.375.077-.794.32-1.213.562-7.635-7.19-15.359-14.05-22.111-21.89-2.035-2.32-3.86-4.76-5.431-7.487 9.845-3.039 21.898-9.034 22.875-19.948 1.202-14.401-15.496-10.893-22.36-5.104-8.374 6.803-9.995 14.174-6.164 23.006-6.504 1.805-13.403 2.44-19.427.471-14.57-4.436-13.5-18.34-6.729-28.412 3.852 2.806 8.675 4.63 13.237 4.789 8.208.425 18.34-9.633 14.75-18.045-3.633-8.247-20.925.78-24.843 4.165a30.178 30.178 0 0 0-3.332 3.186c-.121-.21-.287-.254-.407-.463C17.354 17.256 28.38 7.087 38.048 4.71c1.499-.308.483-1.3-.972-1.158-9.776 1.46-19.834 8.175-16.68 20.196a17.773 17.773 0 0 0 4.636 7.806c-6.073 8.129-8.912 18.722-2.425 27.555 7.783 10.6 22 9.089 33 6.36l.242.42c6.559 11.868 17.893 21.114 27.86 30.17-1.136.938-2.317 2.041-3.453 2.978-.718.695-.863 1.898-.38 2.737 4.331 6.305 10.13 11.761 17.253 14.911 1.684.984 3.493-.482 3.155-2.525ZM55.976 56.166c-1.95-7.264 4.196-12.358 9.733-15.841 7.258-4.62 15.901-.53 11.556 8.418-2.278 4.534-7.593 7.19-11.905 9.405a49.865 49.865 0 0 1-7.564 3.118c-.802-1.634-1.394-3.39-1.82-5.1Zm-25.544-24.94c3.51-3.848 7.701-6.273 12.54-7.815 2.128-.671 4.377-1.133 6.658-1.054 6.06-.15.857 8.035-.92 10.042-5.155 5.36-12.952 2.739-18.278-1.172Zm54.272 69.713c.044-.166.21-.122.254-.287.495.133 1.08-.066 1.588-.639.805-1.026 1.777-2.007 2.748-2.99.464-.407 1.72-1.135 1.39-1.223.166.044.375-.077.42-.243.503 2.086 1.337 4.261 1.84 6.347.701 2.672 1.358 5.508 2.014 8.345-3.82-2.264-7.374-5.523-10.254-9.31Z"/></svg>
